svgs/sharp-solid/land-mine-on.svg

<svg xmlns="http://www.w3.org/2000/svg" viewBox="0 0 640 512"><!--! Font Awesome Pro 6.6.0 by @fontawesome - https://fontawesome.com License - https://fontawesome.com/license (Commercial License) Copyright 2024 Fonticons, Inc. --><path d="M344 24l0 144 0 24-48 0 0-24 0-144 0-24 48 0 0 24zM69.7 132.3l104 72 19.7 13.7-27.3 39.5-19.7-13.7-104-72L22.6 158.1l27.3-39.5 19.7 13.7zm528 39.5l-104 72-19.7 13.7-27.3-39.5 19.7-13.7 104-72 19.7-13.7 27.3 39.5-19.7 13.7zM192 288l256 0 0 64-256 0 0-64zm-64 96l384 0 64 128L64 512l64-128z"/></svg>

<svg xmlns="http://www.w3.org/2000/svg" viewBox="0 0 640 512"><!--! Font Awesome Pro 6.4.0 by @fontawesome - https://fontawesome.com License - https://fontawesome.com/license (Commercial License) Copyright 2023 Fonticons, Inc. --><path d="M344 24V168v24H296V168 24 0h48V24zM69.7 132.3l104 72 19.7 13.7-27.3 39.5-19.7-13.7-104-72L22.6 158.1l27.3-39.5 19.7 13.7zm528 39.5l-104 72-19.7 13.7-27.3-39.5 19.7-13.7 104-72 19.7-13.7 27.3 39.5-19.7 13.7zM192 288H448v64H192V288zm-64 96H512l64 128H64l64-128z"/></svg>
